X:1
T:The Bachelor's Waltz.
T:The Bachelor's Waltz.
T:FRIEDA AUFDERHEIDE
T:Copyright, 1909, by Carlin Lennox Indianapolis, Ind.
T:Copyright, 1909, by Carlin Lennox Indianapolis, Ind.
T:Copyright, 1909, by Carlin Lennox Indianapolis, Ind.
C:FRIEDA AUFDERHEIDE
Z:Copyright, 1909, by Carlin Lennox Indianapolis, Ind.
%%score { ( 1 3 ) | ( 2 4 ) }
L:1/8
Q:1/4=140
M:3/4
K:F
V:1 treble nm="Piano" snm="Pno."
V:3 treble 
V:2 bass 
V:4 bass 
V:1
!8va(! [fac'f']- | [fac'f']4- [fac'f']!8va)!!>![dfad']- | [dfad']4- [dfad']!>![c^fac']- | %3
 [c^fac']4- [cfac'][Ac^fa]- | [Acfa]4- [Acfa][=Bd=fa]- | [=Bdfa]2 [Bdfg]2 [Bd]2 | %6
 [=Bdfa]2 [Bdfg]2 [Bd]!>![Bdfa]- | [=Bdfa]6 | [=Bdfg]6 | [_Bceg]6 | [Bea]6 | !arpeggio![Bec']6- | %12
 [Bec']2 [cea]2 [Bcg]!>![Acf]- | [Acf]4- [Acf]!>![cfc']- | [cfc']3 [cfc'] !>![cec']2- | %15
 [cec']2 [=Be=b]2 [cec']2 | [^cgb^c']2 [dgbd']2 [eb=c'e']2 | %17
!8va(! [fac'f']4- [fac'f']!8va)!!>![dfad']- | [dfad']4- [dfad']!>![c^fac']- | %19
 [c^fac']4- [cfac']!>![Ac^fa]- | [Acfa]4- [Acfa]!>![=Bd=fa]- | [=Bdfa]2 [Bdfg]2 [Bd]2 | %22
 [=Bdfa]2 [Bdfg]2 [Bd]!>![Bdfa]- | [=Bdfa]6 | [=Bdfg]2 [Bg]2 [_Bfg]2 | [Afa]4- [Afa]!>![d^fd']- | %26
 [d^fd']4- [dfd']!>![Afa] | !>![A=fa]2 [=Bfg]2 [Bf]2 | [F=Bd]2 [FB^c]2 [FBd]2 |"_rit." [Acea]6 | %30
 [Bceg]6 | [Acf]2"_rall." [cfac']2 [df=bd']2 | [egbe']2 [dgbd']2 [cgbc']2 |: %33
 [fac'f']2 [dfad']2 [cfac']!>![Acfa]- | [Acfa]2 [Acf]2 [Ad]!>![Ac]- | [Ac]2 [Acf]2 [Acfa]2 | %36
 [cegc']2 [dgbd']2 [egac'e'][fac'f']- | [fac'f']2 [dfad']2 [cfac']!>![Acfa]- | %38
 [Acfa]2 [Acf]2 [Ad]!>![EBe]- | [EBe]2 [FBf]2 [^FB^f]!>![GBg]- | [GBg]2 [cebc']2 [dd']!>![ebe']- | %41
 [ebe']2 [dbd']2 [cbc']!>![deb]- | [deb]2 [cea]2 [Bceg]!>![Acf]- | %43
 [Acf]2 [cfa]2 [cegb]!>![cfac']- | [cfac']2 [=Bfa=b]2 [cf_ac']2 | [df=bd']4- [dfbd']!>![G=Bdg]- | %46
 [GBdg]3 [G=Bdg] !>![G_Bdg]2- | [GBdg]2 [cegc']2 [dbd']!>![egbe']- | [egbe']g [dgbd']2 [cgbc']2 | %49
 [fac'f']2 [dfad']2 [cfac']!>![Acfa]- | [Acfa]2 [Acf]2 [Ad]!>![Ac]- | [Ac]2 [Acf]2 [Acfa]2 | %52
 [cegc']2 [dgbd']2 [ebc'e'][fac'f']- | [fac'f']2 [dfad']2 [cfac']!>![c^fa]- | %54
 [c^fa]2 [cfb]2 [cfa]!>!d- | d6- | [DGBd]2 d2 e!>![Ff]- | [Ff]6- | [Ff]2 [Gdg]2 [^G_d^g][Acfa]- | %59
 [Acfa]2 [^Gcf^g]2 [Acfa]2 | [c^fac']2 [cfb]2 [cfa]2 | d6 | g6 |1 f2 [cfac']2 [df_ad'][egbe']- | %64
 [egbe']2 [dgbd']2 [cbc']2 :|2 f2 [Acfa]2 [cfac']2 |!8va(! [fac'f']2!8va)! z2 z2 ||[K:Bb] D2- | %68
 D2 [DF]2 G2 [DA]2- | [DA]2 G2 F2 |!8vb(! D,/E,/=E,/F,/ ^F,/G,/^G,/A,/ B,/=B,/C/^C/!8vb)! | %71
 D/E/=E/F/ ^F/G/^G/A/ B/=B/c/^c/ | d2 [Ff]2 [Gg][Aea]- | [Aea]2 [Gg]2 [Ff]2 | %74
!8va(! e'/d'/_d'/c'/ =b/_b/a/_a/ g/_g/f/=e/!8va)! | e/d/_d/c/ =B/_B/A/_A/ G/_G/F/=E/ | %76
 [Ee]2 [Ff]2 [Gg][Aea]- | [Aea]e [Beb]2 [cec']2 | [dfd']f [^cf^c']2 [dfd']2 | [G=Bdg]4 [FBd]2 | %80
 [=EBc]2 [EBd]2 [EG][EBc]- | [=EBc]2 [EBd]2 [EG][_EAc]- | [EAc]2 [EAd]2 [EAc]2 | %83
 [EA]2 [EA]2 [EF][Dd]- | [Dd]2 [Fdf]2 [Gg][Ada]- | [Ada]2 [Gg]2 [Ff]2 | %86
 D/E/=E/F/ ^F/G/^G/A/ B/=B/c/^c/ | d/e/=e/f/ ^f/g/^g/a/ b/=b/c'/^c'/ | %88
 [dd']2 [ff']2 [gg'][ad'a']- | [ad'a']2 [gg']2 [ff']2 | e'/d'/_d'/c'/ =b/_b/a/_a/ g/_g/f/=e/ | %91
 _e/d/_d/c/ =B/_B/A/_A/ G/_G/F/=E/ | [Ee]2 [Ff]2 [Gg][Aea]- | [Aea]e [Beb]2 [cec']2 | %94
 [dfd']f [^cf^c']2 [dfd']2 |!8va(! [g=bd'g']4 [fbd']2 | [=ebc']2 [ebd']2 [eg][_eac']- | %97
 [eac']2 [ead']2 [ef]2 | [dfb]2 [fbd']2 [bd'f']2 | [bd'f'b']2!8va)! z2 z2 |] %100
V:2
 z | [F,,F,]2 [A,CF]2 [A,CF]2 | [C,,C,]2 [A,CF]2 [A,CF]2 | [D,,D,]2 [D,^F,C]2 [D,F,C]2 | %4
 [D,,D,]2 [E,,E,]2 [^F,,^F,]2 | [G,,G,]2 [G,=B,F]2 [D,,D,]2 | [G,,G,]2 [G,=B,F]2 [D,,D,]2 | %7
 [G,,G,]2 [G,=B,DF]2 [G,B,DF]2 | [G,,G,]2 [G,=B,DF]2 [G,B,DF]2 | [E,,E,]2 [G,B,CE]2 [G,B,CE]2 | %10
 [C,,C,]2 [G,B,CE]2 [G,B,CE]2 | [G,,G,]2 [G,B,C]2 [G,B,C]2 | [C,,C,]2 [D,,D,]2 [E,,E,]2 | %13
 [F,,F,]2 [A,CF]2 [A,CF]2 | [A,,A,]2 [A,CF]2 [_A,,_A,]2 | [G,,G,]2 [G,B,CE]2 [G,B,CE]2 | %16
 [E,,E,]2 [D,,D,]2 [C,,C,]2 | [F,,F,]2 [A,CF]2 [A,CF]2 | [C,,C,]2 [A,CF]2 [A,CF]2 | %19
 [D,,D,]2 [D,^F,C]2 [D,F,C]2 | [D,,D,]2 [E,,E,]2 [^F,,^F,]2 | [G,,G,]2 [G,=B,DF]2 [D,,D,]2 | %22
 [G,,G,]2 [G,=B,DF]2 [D,,D,]2 | [G,,G,]2 [G,=B,DF]2 [G,B,DF]2 | [=B,,=B,]2 [D,D]2 [_D,_D]2 | %25
 [C,C]2 [A,CF]2 [A,CF]2 | [A,,A,]2 [D,^F,C]2 [D,F,C]2 | [G,,G,]2 [G,=B,DF]2 [G,B,DF]2 | %28
 [G,,G,]2 [G,=B,]2 [G,B,]2 | z2 [C,,C,]2 [D,,D,]2 | [E,,E,]2 [D,,D,]2 [C,,C,]2 | %31
 [F,,F,]2 [A,CF]2 [_A,,_A,]2 | [G,,G,]2 [G,B,CE]2 [C,,C,]2 |: %33
 !arpeggio![F,,C,A,]2 [A,CF]2 [A,CF]2 | [C,,C,]2 [A,CF]2 [A,CF]2 | [F,,F,]2 [A,CF]2 [A,CF]2 | %36
 [C,,C,]2 [G,B,CE]2 [G,,G,]2 | [A,,A,]2 [A,CF]2 [A,CF]2 | [C,,C,]2 [A,CF]2 [A,CF]2 | %39
 [G,,G,]2 [G,B,C]2 [G,B,C]2 | [C,,C,]2 [G,B,CE]2 [G,B,CE]2 | [E,,E,]2 [G,B,C]2 [G,B,C]2 | %42
 [C,,C,]2 [D,,D,]2 [E,,E,]2 | [F,,F,]2 [A,CF]2 [G,,G,]2 | [A,,A,]2 [A,CF]2 [_A,,_A,]2 | %45
 [G,,G,]2 [G,=B,DF]2 [G,B,DF]2 | [=B,,=B,]2 [G,B,D]2 [G,B,D]2 | [C,,C,]2 [G,B,CE]2 [G,B,CE]2 | %48
 [C,,C,]2 [D,,D,]2 [E,,E,]2 | !arpeggio![F,,C,A,]2 [A,CF]2 [A,CF]2 | [C,,C,]2 [A,CF]2 [A,CF]2 | %51
 [F,,F,]2 [A,CF]2 [A,CF]2 | [C,,C,]2 [G,B,CE]2 [G,,G,]2 | [A,,A,]2 [A,CF]2 [A,CF]2 | %54
 [D,,D,]2 [D,^F,C]2 [D,F,C]2 | [B,,B,]4 [A,,A,]2 | [G,,G,]2 z2 z2 | [B,,B,]6 | %58
 [B,,B,]4 [=B,,=B,]2 | [C,C]2 [A,CF]2 [A,CF]2 | !arpeggio![D,,F,]2 [D,^F,C]2 [D,F,C]2 | %61
 !arpeggio![G,,D,=B,]2 x4 | !arpeggio![C,,E,]2 [G,B,CE]2 [G,B,CE]2 |1 %63
 !arpeggio![F,,C,A,]2 [A,CF]2 [_A,,_A,]2 | [G,,G,]2 [G,B,CE]2 [C,,C,]2 :|2 %65
 !arpeggio![F,,C,A,]2 [A,CF]2 [A,CF]2 | !arpeggio![F,,C,A,]2 z2 z2 ||[K:Bb] D,2- | %68
 D,2 F,2 G,2 A,2- | A,2 G,2 F,2 | B,,2 [D,F,]2 z2 |"^loco" F,,2 [D,F,]2 z2 | B,,2 [F,B,D]2 z2 | %73
 F,,2 [F,B,D]2 z2 | [C,C]2 [F,A,E]2 z2 | F,,2 [F,A,E]2 z2 | C,2 [F,A,E]2 [F,A,E]2 | %77
 F,,2 [F,A,E]2 [A,,A,]2 | [B,,B,]2 [F,B,D]2 [_A,,_A,]2 | !arpeggio![G,,D,=B,]2 [G,B,]2 [G,B,]2 | %80
 [C,,C,]2 [G,B,C]2 [=E,,=E,]2 | [G,,G,]2 [G,B,C]2 [C,,C,]2 | z2 F,2 F,2 | %83
 [F,,F,]2 [G,,G,]2 [A,,A,]2 | [B,,B,]2 [F,B,D]2 z2 | [F,,F,]2 [F,B,D]2 z2 | B,,2 [F,B,D]2 z2 | %87
 F,,2 [F,B,D]2 z2 | B,,2 [F,B,D]2 [F,B,D]2 | F,,2 [F,B,D]2 [F,B,D]2 | [C,C]2 [F,A,E]2 z2 | %91
 F,,2 [F,A,E]2 z2 | C,2 [F,A,E]2 [F,A,E]2 | F,,2 [F,A,E]2 [F,A,E]2 | [B,,B,]2 [F,B,D]2 [_A,,_A,]2 | %95
 !arpeggio![G,,D,=B,]2 [G,B,]2 [G,B,]2 | [C,,C,]2 [G,B,C]2 [G,B,C]2 | [F,,F,]2 [F,A,C]2 [F,A,C]2 | %98
 [B,,B,]2 [F,,F,]2 [D,,D,]2 | [B,,,B,,]2 z2 z2 |] %100
V:3
!8va(! x | x5!8va)! x | x6 | x6 | x6 | x6 | x6 | x6 | x6 | x6 | x6 | x6 | x6 | x6 | x6 | x6 | x6 | %17
!8va(! x5!8va)! x | x6 | x6 | x6 | x6 | x6 | x6 | x6 | x6 | x6 | x6 | x6 | x6 | x6 | x6 | x6 |: %33
 x6 | x6 | x6 | x6 | x6 | x6 | x6 | x6 | x6 | x6 | x6 | x6 | x6 | x6 | x6 | x6 | x6 | x6 | x6 | %52
 x6 | x6 | x6 | z2 [DFB]2 [D^Fc]2 | x6 | z2 [Bd]2 [Bd]2 | x6 | x6 | x6 | z2 [FG=B]2 [FGB]2 | %62
 z2 [_Bc]2 [Bc]2 |1 x6 | x6 :|2 x6 |!8va(! x2!8va)! x4 ||[K:Bb] x2 | x8 | x6 |!8vb(! x6!8vb)! | %71
 x6 | x6 | x6 |!8va(! x6!8va)! | x6 | x6 | x6 | x6 | x6 | x6 | x6 | x6 | x6 | x6 | x6 | x6 | x6 | %88
 x6 | x6 | x6 | x6 | x6 | x6 | x6 |!8va(! x6 | x6 | x6 | x6 | x2!8va)! x4 |] %100
V:4
 x | x6 | x6 | x6 | x6 | x6 | x6 | x6 | x6 | x6 | x6 | x6 | x6 | x6 | x6 | x6 | x6 | x6 | x6 | x6 | %20
 x6 | x6 | x6 | x6 | x6 | x6 | x6 | x6 | x6 | x6 | x6 | x6 | x6 |: x6 | x6 | x6 | x6 | x6 | x6 | %39
 x6 | x6 | x6 | x6 | x6 | x6 | x6 | x6 | x6 | x6 | x6 | x6 | x6 | x6 | x6 | x6 | x6 | x6 | x6 | %58
 x6 | x6 | x6 | x6 | x6 |1 x6 | x6 :|2 x6 | x6 ||[K:Bb] x2 | B,,6 x2 | F,,6 | x6 | x6 | x6 | x6 | %74
 x6 | x6 | x6 | x6 | x6 | x6 | x6 | x6 | F,,6 | x6 | x6 | x6 | x6 | x6 | x6 | x6 | x6 | x6 | x6 | %93
 x6 | x6 | x6 | x6 | x6 | x6 | x6 |] %100

